icons/ghost-line.svg

<svg viewBox="0 0 24 24" fill="currentColor" xmlns="http://www.w3.org/2000/svg"><path d="M12 2C16.9706 2 21 6.02944 21 11V18.5C21 20.433 19.433 22 17.5 22C16.3001 22 15.2413 21.3962 14.6107 20.476C14.0976 21.3857 13.1205 22 12 22C10.8795 22 9.9024 21.3857 9.38728 20.4754C8.75869 21.3962 7.69985 22 6.5 22C4.63144 22 3.10487 20.5357 3.00518 18.692L3 18.5V11C3 6.02944 7.02944 2 12 2ZM12 4C8.21455 4 5.1309 7.00478 5.00406 10.7593L5 11L4.99927 18.4461L5.00226 18.584C5.04504 19.3751 5.70251 20 6.5 20C6.95179 20 7.36652 19.8007 7.64704 19.4648L7.73545 19.3478C8.57033 18.1248 10.3985 18.2016 11.1279 19.4904C11.3053 19.8038 11.6345 20 12 20C12.3651 20 12.6933 19.8044 12.8687 19.4934C13.5692 18.2516 15.2898 18.1317 16.1636 19.2151L16.2606 19.3455C16.5401 19.7534 16.9976 20 17.5 20C18.2797 20 18.9204 19.4051 18.9931 18.6445L19 18.5V11C19 7.13401 15.866 4 12 4ZM12 12C13.1046 12 14 13.1193 14 14.5C14 15.8807 13.1046 17 12 17C10.8954 17 10 15.8807 10 14.5C10 13.1193 10.8954 12 12 12ZM9.5 8C10.3284 8 11 8.67157 11 9.5C11 10.3284 10.3284 11 9.5 11C8.67157 11 8 10.3284 8 9.5C8 8.67157 8.67157 8 9.5 8ZM14.5 8C15.3284 8 16 8.67157 16 9.5C16 10.3284 15.3284 11 14.5 11C13.6716 11 13 10.3284 13 9.5C13 8.67157 13.6716 8 14.5 8Z"/></svg>

<svg xmlns="http://www.w3.org/2000/svg" viewBox="0 0 24 24">
    <g>
        <path fill="none" d="M0 0h24v24H0z"/>
        <path fill-rule="nonzero" d="M12 2a9 9 0 0 1 9 9v7.5a3.5 3.5 0 0 1-6.39 1.976 2.999 2.999 0 0 1-5.223 0 3.5 3.5 0 0 1-6.382-1.783L3 18.499V11a9 9 0 0 1 9-9zm0 2a7 7 0 0 0-6.996 6.76L5 11v7.446l.002.138a1.5 1.5 0 0 0 2.645.88l.088-.116a2 2 0 0 1 3.393.142.999.999 0 0 0 1.74.003 2 2 0 0 1 3.296-.278l.097.13a1.5 1.5 0 0 0 2.733-.701L19 18.5V11a7 7 0 0 0-7-7zm0 8c1.105 0 2 1.12 2 2.5s-.895 2.5-2 2.5-2-1.12-2-2.5.895-2.5 2-2.5zM9.5 8a1.5 1.5 0 1 1 0 3 1.5 1.5 0 0 1 0-3zm5 0a1.5 1.5 0 1 1 0 3 1.5 1.5 0 0 1 0-3z"/>
    </g>
</svg>
